X:71
T:score160
L:1/8
Q:1/4=96
M:2/2
I:linebreak $
K:D
!f! (A2 | Md3 e Te4 | fefg f2) (a2 | d2 e2 f2 gf |$ Pedef e2)!p! (A2 | Md3 e Te4 | fefg f2) (a2 |$ %7
 Md2 gf Pe3 d | d6) z2 |] %9
